X:114
T:Brunswick. WM.114
M:3/8
L:1/8
Q:3/8=50
S:Wm.Mittell’s MS, New Romney,Kent,1799
R:.Waltz
O:England
A:Kent
N:Appears earlier in the book in Fmaj.
Z:vmp.Chris Partington
K:D
D/E/|”^p”FFG|A2d/B/|AAB/G/|FFD/E/|FFG|A2d|ee/d/e/f/|d2:|!
|:A|”^f”gg”p”A|”^f”ff”^p”d|cc/e/d/f/|eeA|\
“^f”gg”p”A|”^f”ffA|”^p”ec/A/B/c/|dd:|!
|:”^p”D/F/|AAB|AAF/A/|GGE/G/|FDD/F/|AAB|AAd|d/c/B/A/B/c/|d2:|

